X:32
T:Neilly O'Boyle's Highland
R:highland
H:See also "A St\'or, a St\'or, a Ghr\'a", reel#605
D:Altan: Altan
Z:id:hn-hf-32
M:C|
L:1/8
K:Amix
eaag e2ec | dcBA Bcdf | eaag e2ef |1 gfgd BAA2 :|2 gfgd BAAB ||
cAcA dcdB | cAcA ceae | cAcA dcdf | ecac BAAB |
c2cA d2dB | cAcA ceae | cAcA dcdf | ecac BAA2 ||

